app/images/home-btn.svg

<?xml version="1.0" encoding="iso-8859-1"?>
<!-- Generator: Adobe Illustrator 19.0.0, SVG Export Plug-In . SVG Version: 6.00 Build 0)  -->
<svg version="1.1" id="Capa_1" xmlns="http://www.w3.org/2000/svg" xmlns:xlink="http://www.w3.org/1999/xlink" x="0px" y="0px"
	 viewBox="0 0 511.999 511.999" style="enable-background:new 0 0 511.999 511.999;" xml:space="preserve">
<g>
	<g>
		<path d="M511.864,221.487c-0.921-11.988-6.455-22.896-15.581-30.716l-44.286-37.96V44.944c0-8.284-6.716-14.999-14.999-14.999
			h-59.998c-8.284,0-14.799,6.716-14.799,14.999v30.728l-75.911-64.695c-16.97-14.539-41.603-14.537-58.519-0.043L15.728,190.769
			c-18.753,16.068-21.186,44.423-4.866,63.473c12.439,14.465,32.364,19.077,49.35,13.107v229.584
			c0,8.284,6.516,14.999,14.799,14.999h361.986c8.284,0,14.999-6.716,14.999-14.999V267.352c17.534,6.2,37.039,1.004,49.167-13.13
			C508.983,245.094,512.784,233.468,511.864,221.487z M391.999,59.943h30.199v67.154l-30.199-25.713V59.943z M317.202,481.934
			H195.007V361.738h122.195V481.934z M422.198,481.934h-75.197V346.939c0-8.284-6.716-14.999-14.999-14.999H180.007
			c-8.284,0-14.799,6.716-14.799,14.999v134.995H90.011V245.775l166.943-141.613l165.245,141.473V481.934z M478.389,234.694
			c-5.318,6.198-14.772,7.107-21.158,1.631L266.765,73.061c-5.595-4.797-13.845-4.817-19.464-0.05
			C243.242,76.453,55.58,235.643,54.786,236.317c-6.282,5.375-15.782,4.642-21.161-1.615c-5.385-6.285-4.657-15.774,1.569-21.11
			L247.238,33.756c5.66-4.848,13.874-4.849,19.53-0.002l209.994,179.795C483.04,218.929,483.767,228.419,478.389,234.694z"/>
	</g>
</g>
<g>
	<g>
		<path d="M302.002,179.938h-91.996c-8.284,0-14.799,6.716-14.799,14.999v89.996c0,8.284,6.516,14.999,14.799,14.999h91.996
			c8.284,0,14.999-6.716,14.999-14.999v-89.996C317.002,186.653,310.286,179.938,302.002,179.938z M287.203,269.935h-62.198v-59.998
			h62.198V269.935z"/>
	</g>
</g>
<g>
	<g>
		<circle cx="271.999" cy="406.934" r="14.999"/>
	</g>
</g>
<g>
</g>
<g>
</g>
<g>
</g>
<g>
</g>
<g>
</g>
<g>
</g>
<g>
</g>
<g>
</g>
<g>
</g>
<g>
</g>
<g>
</g>
<g>
</g>
<g>
</g>
<g>
</g>
<g>
</g>
</svg>

<?xml version="1.0" encoding="UTF-8" standalone="no"?>
<!-- Generator: Adobe Illustrator 19.0.0, SVG Export Plug-In . SVG Version: 6.00 Build 0)  -->

<svg
   xmlns:dc="http://purl.org/dc/elements/1.1/"
   xmlns:cc="http://creativecommons.org/ns#"
   xmlns:rdf="http://www.w3.org/1999/02/22-rdf-syntax-ns#"
   xmlns:svg="http://www.w3.org/2000/svg"
   xmlns="http://www.w3.org/2000/svg"
   xmlns:sodipodi="http://sodipodi.sourceforge.net/DTD/sodipodi-0.dtd"
   xmlns:inkscape="http://www.inkscape.org/namespaces/inkscape"
   version="1.1"
   id="Capa_1"
   x="0px"
   y="0px"
   viewBox="0 0 511.999 511.999"
   style="enable-background:new 0 0 511.999 511.999;"
   xml:space="preserve"
   sodipodi:docname="home-btn.svg"
   inkscape:version="0.92.2 (5c3e80d, 2017-08-06)"><metadata
     id="metadata55"><rdf:RDF><cc:Work
         rdf:about=""><dc:format>image/svg+xml</dc:format><dc:type
           rdf:resource="http://purl.org/dc/dcmitype/StillImage" /></cc:Work></rdf:RDF></metadata><defs
     id="defs53" /><sodipodi:namedview
     pagecolor="#ffffff"
     bordercolor="#666666"
     borderopacity="1"
     objecttolerance="10"
     gridtolerance="10"
     guidetolerance="10"
     inkscape:pageopacity="0"
     inkscape:pageshadow="2"
     inkscape:window-width="836"
     inkscape:window-height="480"
     id="namedview51"
     showgrid="false"
     inkscape:zoom="0.46093841"
     inkscape:cx="260.33847"
     inkscape:cy="247.32155"
     inkscape:window-x="0"
     inkscape:window-y="27"
     inkscape:window-maximized="0"
     inkscape:current-layer="Capa_1" /><g
     id="g6"><g
       id="g4" /></g><g
     id="g12"><g
       id="g10" /></g><g
     id="g18"><g
       id="g16"><path
         id="circle14"
         style=""
         d="m 286.99799,406.93399 a 14.999,14.999 0 0 1 -14.999,14.999 14.999,14.999 0 0 1 -14.999,-14.999 14.999,14.999 0 0 1 14.999,-14.999 14.999,14.999 0 0 1 14.999,14.999 z M 302.002,179.938 h -91.996 c -8.284,0 -14.799,6.716 -14.799,14.999 v 89.996 c 0,8.284 6.516,14.999 14.799,14.999 h 91.996 c 8.284,0 14.999,-6.716 14.999,-14.999 v -89.996 c 0.001,-8.284 -6.715,-14.999 -14.999,-14.999 z m -14.799,89.997 h -62.198 v -59.998 h 62.198 z m 224.661,-48.448 c -0.921,-11.988 -6.455,-22.896 -15.581,-30.716 l -44.286,-37.96 V 44.944 c 0,-8.284 -6.716,-14.999 -14.999,-14.999 H 377 c -8.284,0 -14.799,6.716 -14.799,14.999 V 75.672 L 286.29,10.977 C 269.32,-3.562 244.687,-3.56 227.771,10.934 L 15.728,190.769 c -18.753,16.068 -21.186,44.423 -4.866,63.473 12.439,14.465 32.364,19.077 49.35,13.107 v 229.584 c 0,8.284 6.516,14.999 14.799,14.999 h 361.986 c 8.284,0 14.999,-6.716 14.999,-14.999 V 267.352 c 17.534,6.2 37.039,1.004 49.167,-13.13 7.82,-9.128 11.621,-20.754 10.701,-32.735 z M 391.999,59.943 h 30.199 v 67.154 L 391.999,101.384 Z M 317.202,481.934 H 195.007 V 361.738 h 122.195 z m 104.996,0 H 347.001 V 346.939 c 0,-8.284 -6.716,-14.999 -14.999,-14.999 H 180.007 c -8.284,0 -14.799,6.716 -14.799,14.999 V 481.934 H 90.011 V 245.775 L 256.954,104.162 422.199,245.635 v 236.299 z m 56.191,-247.24 c -5.318,6.198 -14.772,7.107 -21.158,1.631 L 266.765,73.061 C 261.17,68.264 252.92,68.244 247.301,73.011 243.242,76.453 55.58,235.643 54.786,236.317 c -6.282,5.375 -15.782,4.642 -21.161,-1.615 -5.385,-6.285 -4.657,-15.774 1.569,-21.11 L 247.238,33.756 c 5.66,-4.848 13.874,-4.849 19.53,-0.002 l 209.994,179.795 c 6.278,5.38 7.005,14.87 1.627,21.145 z" /></g></g><g
     id="g20" /><g
     id="g22" /><g
     id="g24" /><g
     id="g26" /><g
     id="g28" /><g
     id="g30" /><g
     id="g32" /><g
     id="g34" /><g
     id="g36" /><g
     id="g38" /><g
     id="g40" /><g
     id="g42" /><g
     id="g44" /><g
     id="g46" /><g
     id="g48" /></svg>
